!!!OTL: ACH PREUSSE WAS HAST DU GEFANGEN AN
!!!ARE: Europa, Mitteleuropa, Deutschland, Bayern
!!!SCT: E0344
!!!YEM: Copyright 1995, estate of Helmut Schaffrath.
**kern
*ICvox
*Ivox
*M6/8
*k[f#]
*G:
{8d
=1
8.d
16g
8g
8g
8f#
8e
=2
8e
8d
8d
4d}
{8cc
=3
4b
8b
8a
8g
8a
=4
4.g
4r}
{8d
=5
8.d
16g
8g
8g
8f#
8e
=6
8e
8d
8d
4d}
{8cc
=7
4b
8b
8a
8g
8a
=8
4.g
4r}
{16d
16g
=9
8.g
16g
8b
4b
8dd
=10
8.dd
16cc
8cc
8cc
8cc}
{8cc
=11
8a
8a
8dd
8dd
8cc
8cc
=12
4.cc
4b}
{8d
=13
8d
8g
8g
8g
8f#
8e
=14
4.e
4d}
{8cc
=15
8.b
16b
8b
8a
8g
8a
=16
4.g
4r}
==
!!!AGN: historisches Lied, Krieg v. Franzosen und Bayern gegen Preussen 1806
!!!ONB: ESAC (Essen Associative Code) Database: ERK1
!!!AMT: compound duple
!!!AIN: vox
!!!EED: Helmut Schaffrath
!!!EEV: 1.0
*-
